X: 18693
T: I'm Sleeping And Don't Waken Me
R: waltz
M: 3/4
K: Dmajor
A>A|(B2d2).d2|.d4 .f>.f|(efafed)|{c}B4 .A2|
(B2d2).d2|(f2a3).b|Te4-(ed)|d4 .b>.b|
(c'4d'2)|{c'}(b4 d'b)|(abafed)|(d2B2) zA|
(Bd3)d2|(f2a2) z(b|e) z (e3f)|d6|
(g2 agfe)|(f2 gfed)|(efaefd)|{c}B4 A>A|
(B2d2).d2|f2-(a3b)|e2 e3^f/|d6||

